icons/lines/paypal.svg

<svg xmlns="http://www.w3.org/2000/svg" width="24" height="24" viewBox="0 0 24 24" fill="none" stroke="currentColor" stroke-width="2" stroke-linecap="round" stroke-linejoin="round" >
  <path d="M19.0003 7C19.0003 7.2 19.0003 7.3 19.0003 7.5C18.9003 9 18.2003 10.3 17.3003 11.2C16.2003 12.3 14.7003 13 13.0003 13H9.90031C9.40031 13 9.00031 13.4 8.90031 13.9L8.10031 19.2C8.00031 19.6 7.80031 19.9 7.40031 20C7.30031 20 7.20031 20 7.10031 20H5.20031C4.60031 20 4.10031 19.5 4.20031 18.8L6.60031 4.5C6.80031 3.1 8.10031 2 9.50031 2H14.0003C16.8003 2 19.0003 4.2 19.0003 7Z" stroke-miterlimit="10"/>
  <path d="M21.0003 11C21.0003 12.4 20.4003 13.6 19.5003 14.5C18.6003 15.4 17.4003 16 16.0003 16H13.9003C13.4003 16 13.0003 16.3 12.9003 16.8L12.2003 21.1C12.1003 21.6 11.7003 21.9 11.2003 21.9H8.20031C7.60031 21.9 7.10031 21.3 7.20031 20.7L7.40031 20C7.80031 19.9 8.10031 19.6 8.10031 19.2L8.90031 13.9C9.00031 13.4 9.40031 13 9.90031 13H13.0003C14.7003 13 16.2003 12.3 17.2003 11.2C18.2003 10.2 18.8003 8.9 18.9003 7.5C20.2003 8.2 21.0003 9.5 21.0003 11Z" stroke-miterlimit="10"/>
  </svg>

<svg xmlns="http://www.w3.org/2000/svg" width="24" height="24" viewBox="0 0 24 24" fill="none" stroke="currentColor" stroke-width="2" stroke-linecap="round" stroke-linejoin="round">
  <path d="M13 13c1.7 0 3.2-.7 4.2-1.8a5.8 5.8 0 0 0 1.7-3.7A4 4 0 0 1 21 11c0 1.4-.6 2.6-1.5 3.5S17.4 16 16 16h-2.1a1 1 0 0 0-1 .8l-.7 4.3a1 1 0 0 1-1 .8h-3c-.6 0-1.1-.6-1-1.2l.2-.7c.4-.1.7-.4.7-.8l.8-5.3c.1-.5.5-.9 1-.9z" />
  <path d="M8.1 19.2c-.1.4-.3.7-.7.8H5.2a1 1 0 0 1-1-1.2L6.6 4.5C6.8 3.1 8.1 2 9.5 2H14c2.8 0 5 2.2 5 5v.5a5.83 5.83 0 0 1-1.7 3.7A6 6 0 0 1 13 13" />
  <path d="M9.9 13c-.5 0-.9.4-1 .9" />
</svg>
